imgs/font_12/gt/12_00.svg

<svg xmlns="http://www.w3.org/2000/svg" xmlns:xlink="http://www.w3.org/1999/xlink" width="50px" height="50px" viewBox="0 0 24 24">
<style type="text/css">
.path {
		stroke-dasharray: 100;
		animation: dash 30s linear infinite;
}
@keyframes dash {
	to {
		stroke-dashoffset: 1000;
	}
}
</style>
<path class="path" d="m 17.375999450683594 6.634666442871094 l 1.3919999599456787 12.28800106048584 l 0.4320000112056732 3.74399995803833 l -1.8959999084472656 0.0 l -0.3840000033378601 -3.384000301361084 l -8.112000465393066 0.0 l -2.0880000591278076 3.384000062942505 l -1.9199998378753662 0.0 l 7.631999969482422 -12.288000106811523 l 2.3519997596740723 -3.743999719619751 l 2.59200057387352 -9.5367431640625e-07 m -1.6320005357265472 1.3200010061264038 l -6.072000026702881 9.86400032043457 l 7.104000091552734 0.0 l -1.0320000648498535 -9.86400032043457" fill="none" stroke="black" stroke-width="0.3">
</path>
</svg>

<svg xmlns="http://www.w3.org/2000/svg" xmlns:xlink="http://www.w3.org/1999/xlink" width="50px" height="50px" viewBox="0 0 24 24">
<style type="text/css">
.pen {
	stroke-dashoffset: 0;
	animation-duration: 5s;
	animation-iteration-count: 1000;
	animation-timing-function: ease;
}
.path00 {
		stroke-dasharray: 24;
		animation-name: dash00 
}
@keyframes dash00 {
	0% {
		stroke-dashoffset: 24;
	}
	14% {
		stroke-dashoffset: 0;
	}
}
.path01 {
		stroke-dasharray: 7;
		animation-name: dash01 
}
@keyframes dash01 {
	0%, 14% {
		stroke-dashoffset: 7;
	}
	18% {
		stroke-dashoffset: 0;
	}
}
.path02 {
		stroke-dasharray: 3;
		animation-name: dash02 
}
@keyframes dash02 {
	0%, 18% {
		stroke-dashoffset: 3;
	}
	21% {
		stroke-dashoffset: 0;
	}
}
.path03 {
		stroke-dasharray: 6;
		animation-name: dash03 
}
@keyframes dash03 {
	0%, 21% {
		stroke-dashoffset: 6;
	}
	25% {
		stroke-dashoffset: 0;
	}
}
.path04 {
		stroke-dasharray: 16;
		animation-name: dash04 
}
@keyframes dash04 {
	0%, 25% {
		stroke-dashoffset: 16;
	}
	34% {
		stroke-dashoffset: 0;
	}
}
.path05 {
		stroke-dasharray: 7;
		animation-name: dash05 
}
@keyframes dash05 {
	0%, 34% {
		stroke-dashoffset: 7;
	}
	39% {
		stroke-dashoffset: 0;
	}
}
.path06 {
		stroke-dasharray: 3;
		animation-name: dash06 
}
@keyframes dash06 {
	0%, 39% {
		stroke-dashoffset: 3;
	}
	41% {
		stroke-dashoffset: 0;
	}
}
.path07 {
		stroke-dasharray: 28;
		animation-name: dash07 
}
@keyframes dash07 {
	0%, 41% {
		stroke-dashoffset: 28;
	}
	58% {
		stroke-dashoffset: 0;
	}
}
.path08 {
		stroke-dasharray: 8;
		animation-name: dash08 
}
@keyframes dash08 {
	0%, 58% {
		stroke-dashoffset: 8;
	}
	63% {
		stroke-dashoffset: 0;
	}
}
.path09 {
		stroke-dasharray: 5;
		animation-name: dash09 
}
@keyframes dash09 {
	0%, 63% {
		stroke-dashoffset: 5;
	}
	66% {
		stroke-dashoffset: 0;
	}
}
.path10 {
		stroke-dasharray: 23;
		animation-name: dash10 
}
@keyframes dash10 {
	0%, 66% {
		stroke-dashoffset: 23;
	}
	80% {
		stroke-dashoffset: 0;
	}
}
.path11 {
		stroke-dasharray: 14;
		animation-name: dash11 
}
@keyframes dash11 {
	0%, 80% {
		stroke-dashoffset: 14;
	}
	88% {
		stroke-dashoffset: 0;
	}
}
.path12 {
		stroke-dasharray: 19;
		animation-name: dash12 
}
@keyframes dash12 {
	0%, 88% {
		stroke-dashoffset: 19;
	}
	100% {
		stroke-dashoffset: 0;
	}
}
</style>
<path class="pen path00" d="M 17.375999450683594 6.634666442871094 L 18.767999410629272 18.922667503356934 " fill="none" stroke="black" stroke-width="0.3"></path>
<path class="pen path01" d="M 18.767999410629272 18.922667503356934 L 19.199999421834946 22.666667461395264 " fill="none" stroke="black" stroke-width="0.3"></path>
<path class="pen path02" d="M 19.199999421834946 22.666667461395264 L 17.30399951338768 22.666667461395264 " fill="none" stroke="black" stroke-width="0.3"></path>
<path class="pen path03" d="M 17.30399951338768 22.666667461395264 L 16.91999951004982 19.28266716003418 " fill="none" stroke="black" stroke-width="0.3"></path>
<path class="pen path04" d="M 16.91999951004982 19.28266716003418 L 8.807999044656754 19.28266716003418 " fill="none" stroke="black" stroke-width="0.3"></path>
<path class="pen path05" d="M 8.807999044656754 19.28266716003418 L 6.719998985528946 22.666667222976685 " fill="none" stroke="black" stroke-width="0.3"></path>
<path class="pen path06" d="M 6.719998985528946 22.666667222976685 L 4.79999914765358 22.666667222976685 " fill="none" stroke="black" stroke-width="0.3"></path>
<path class="pen path07" d="M 4.79999914765358 22.666667222976685 L 12.431999117136002 10.378667116165161 " fill="none" stroke="black" stroke-width="0.3"></path>
<path class="pen path08" d="M 12.431999117136002 10.378667116165161 L 14.783998876810074 6.63466739654541 " fill="none" stroke="black" stroke-width="0.3"></path>
<path class="pen path09" d="M 14.783998876810074 6.63466739654541 L 17.375999450683594 6.634666442871094 " fill="none" stroke="black" stroke-width="0.3"></path>
<path class="pen path10" d="M 15.743998914957047 7.954667448997498 L 9.671998888254166 17.818667769432068 " fill="none" stroke="black" stroke-width="0.3"></path>
<path class="pen path11" d="M 9.671998888254166 17.818667769432068 L 16.7759989798069 17.818667769432068 " fill="none" stroke="black" stroke-width="0.3"></path>
<path class="pen path12" d="M 16.7759989798069 17.818667769432068 L 15.743998914957047 7.954667448997498 " fill="none" stroke="black" stroke-width="0.3"></path>
</svg>
